assets/home-tab/Asset/rupaycreditcard.svg

<svg width="16" height="16" viewBox="0 0 16 16" fill="none" xmlns="http://www.w3.org/2000/svg">
<path d="M13.9465 6.86816C14.2534 6.86816 14.4069 6.86816 14.5041 6.9634C14.6013 7.05864 14.6045 7.21151 14.6107 7.51724C14.6109 7.52774 14.6111 7.53827 14.6113 7.54883C14.6219 8.07071 14.6207 8.58283 14.6094 9.10156C14.5671 11.0358 14.5464 12.0035 13.8662 12.6689C13.1861 13.3342 12.1541 13.334 10.0908 13.334H5.85744C3.81196 13.334 2.78881 13.3343 2.10939 12.6729C1.43001 12.0114 1.40462 11.059 1.35353 9.15527C1.33856 8.5971 1.33792 8.04801 1.35158 7.4873C1.35835 7.2094 1.36174 7.07045 1.44384 6.97892C1.45367 6.96797 1.46432 6.95757 1.47551 6.94802C1.56901 6.86816 1.70852 6.86816 1.98754 6.86816H13.9465ZM3.99904 10C3.63085 10 3.33205 10.2988 3.33205 10.667C3.33222 11.035 3.63096 11.333 3.99904 11.333H5.33205C5.70013 11.333 5.99886 11.035 5.99904 10.667C5.99904 10.2988 5.70024 10 5.33205 10H3.99904ZM10.1074 3.33398C12.1634 3.33398 13.1916 3.33427 13.8721 4.00098C14.1008 4.22513 14.2549 4.4824 14.3602 4.79818C14.4624 5.10493 14.5135 5.25831 14.4137 5.39673C14.314 5.53516 14.1297 5.53516 13.7612 5.53516H2.20674C1.83768 5.53516 1.65315 5.53516 1.55339 5.39651C1.45363 5.25786 1.50508 5.10434 1.60797 4.7973C1.71401 4.48087 1.86933 4.22278 2.1006 3.99707C2.78037 3.33407 3.79773 3.33398 5.83205 3.33398H10.1074Z" fill="#39337B"/>
</svg>

<svg xmlns="http://www.w3.org/2000/svg" width="16" height="16" fill="none" viewBox="0 0 16 16"><path fill="#39337b" d="M13.947 6.868c.306 0 .46 0 .557.095.097.096.1.249.107.554v.032c.01.522.01 1.034-.002 1.553-.042 1.934-.063 2.902-.743 3.567s-1.712.665-3.775.665H5.857c-2.045 0-3.068 0-3.748-.661-.679-.662-.704-1.614-.755-3.518a32 32 0 0 1-.002-1.668c.006-.278.01-.417.092-.508q.015-.016.032-.031c.093-.08.233-.08.512-.08zM3.999 10a.667.667 0 0 0 0 1.333h1.333a.667.667 0 1 0 0-1.333zm6.108-6.666c2.056 0 3.085 0 3.765.667.229.224.383.481.488.797.102.307.154.46.054.599s-.284.138-.653.138H2.207c-.37 0-.554 0-.654-.138-.1-.14-.048-.293.055-.6.106-.316.261-.574.493-.8.68-.663 1.697-.663 3.731-.663z"/></svg>
